arkscan/icons/abra.svg

<svg viewBox="0 0 10 16" fill="none" xmlns="http://www.w3.org/2000/svg">
  <path
    d="M4.77097 0.429815C3.97997 0.466443 3.33279 1.01587 3.08111 1.78506C2.90134 2.37111 2.93729 2.99378 3.18897 3.54321C3.29683 3.76298 3.47661 3.98274 3.65638 4.12926C3.87211 4.27577 4.08783 4.38565 4.33952 4.45891C4.91479 4.60542 5.52601 4.53217 6.06533 4.27577C6.31701 4.12926 6.53274 3.90949 6.67656 3.65309C7.03611 2.95716 7.0361 2.11471 6.71251 1.38215C6.60465 1.19901 6.46083 1.01587 6.28106 0.869353C6.06533 0.72284 5.84961 0.576328 5.59792 0.503071C5.3822 0.466443 5.16647 0.429815 4.95074 0.429815C4.9867 0.393187 4.87883 0.393187 4.77097 0.429815Z"
    fill="#153564" />
  <path
    d="M4.48391 5.52113C3.47719 5.70427 2.57832 6.29032 2.039 7.13277C1.60755 7.79207 1.31991 8.52464 1.21205 9.33046C0.996323 10.2828 0.852505 11.2717 0.744642 12.2241C0.708687 12.9933 0.672733 13.7625 0.744642 14.5317C0.852505 15.191 1.06823 15.6671 1.42778 15.8503C1.6435 15.9602 1.85923 15.9968 2.07496 15.9968C2.39855 15.9968 2.72214 15.8869 2.97382 15.7038C3.33337 15.4107 3.621 15.0444 3.83673 14.6415C3.90864 14.495 4.0165 14.3851 4.12437 14.2753C4.34009 14.0189 4.66368 13.8723 5.02323 13.909C5.34682 13.8723 5.70637 14.0189 5.92209 14.2753C6.02996 14.3851 6.13782 14.5317 6.20973 14.6415C6.42546 15.0811 6.71309 15.4474 7.07264 15.7038C7.32432 15.8869 7.64791 15.9968 7.9715 15.9968C8.43891 16.0334 8.87036 15.777 9.05014 15.3741C9.26586 14.8979 9.37373 14.3485 9.33777 13.8357C9.37373 12.627 9.22991 11.4183 9.01418 10.2462C8.72655 8.78103 8.61868 8.26824 8.29509 7.68219C8.11532 7.27928 7.86364 6.94963 7.576 6.61997C7.07264 6.07055 6.42546 5.70427 5.70637 5.55776C5.27491 5.4845 4.87941 5.4845 4.48391 5.52113Z"
    fill="#153564" />
</svg>

<svg viewBox="0 0 10 16" fill="none" xmlns="http://www.w3.org/2000/svg"><path d="M4.771.43c-.791.036-1.438.586-1.69 1.355a2.47 2.47 0 0 0 .108 1.758c.108.22.288.44.467.586.216.147.432.257.684.33a2.558 2.558 0 0 0 1.725-.183c.252-.147.468-.367.612-.623.36-.696.36-1.538.036-2.27A1.919 1.919 0 0 0 6.28.868C6.065.723 5.85.576 5.598.503A3.892 3.892 0 0 0 4.95.43c.036-.037-.072-.037-.18 0ZM4.484 5.521c-1.007.183-1.906.77-2.445 1.612a5.251 5.251 0 0 0-.827 2.197c-.216.953-.36 1.942-.467 2.894-.036.77-.072 1.538 0 2.308.108.659.323 1.135.683 1.318.216.11.431.147.647.147.324 0 .647-.11.899-.293.36-.293.647-.66.863-1.063.072-.146.18-.256.287-.366.216-.256.54-.403.9-.366.323-.037.682.11.898.366.108.11.216.257.288.367.215.44.503.805.863 1.062.251.183.575.293.898.293.468.036.9-.22 1.08-.623a3.26 3.26 0 0 0 .287-1.538c.036-1.209-.108-2.418-.324-3.59-.287-1.465-.395-1.978-.719-2.564-.18-.403-.431-.732-.719-1.062a3.459 3.459 0 0 0-1.87-1.062 4.602 4.602 0 0 0-1.222-.037Z" fill="#153564"/></svg>
